**kern	**kern	**dynam
*part1	*part1	*part1
*staff2	*staff1	*
*I"Piano	*	*
*clefF4	*clefG2	*
*k[]	*k[]	*
*M2/2	*M2/2	*
*met(c|)	*met(c|)	*
=1	=1	=1
4CC 4EE 4GG 4C	4g 4cc 4ee 4gg	ff
=	=	=
*^	*	*
2.ryy	2.CC 2.GG 2.C	2.cc 2.ee 2.gg 2.ccc	.
4E 4G	4CC 4EE 4GG 4C	4c	.
=	=	=	=
2.E 2.G	2.CC 2.EE 2.GG 2.C	2.c	.
*v	*v	*	*
4GG	4G 4g	.
=	=	=
2C	2c 2cc	.
2GG 2G	2g	.
=	=	=
2EE 2E	2e	.
4CC 4C	4c	.
4C 4G	4g 4ee	.
=	=	=
(2C 2G	(2g 2ee	sf
4BB 4G	4f 4dd	>
4C) 4G	4e) 4cc	.
=	=	=
.	16qqb;/LL	] p
.	16qqcc;/	.
.	16qqdd;/JJ	.
2GG; 2G	2e; 2cc	.
4GGG; 4GG	4d; 4b	.
4GG 4G	4g	f
=	=	=
2FF 2F	2f 2ff	.
2DD 2D	2d 2dd	.
=	=	=
*-	*-	*-
!!!system-decoration: {(s1,s2)}
